!!!!SEGMENT: pl-wn--sd-xvi-o-282_bazylik-cyprian--kancjonal-zamoyskich-psalm-lxxix-deus-venerunt-gentes-panie-boze-wszechmogacy.krn
!!!cenid: 15xx:837
!!!COM: Bazylik, Cyprian
!!!COM-rismid: pe40000234
!!!CDT: ~1535-~1600
!!!CNT: Polish
!!!GTL: Kancjonał Zamoyskich
!!!OTL: Psalm LXXIX Deus venerunt gentes/Panie Boże wszechmogący
!!!PDT: 1558
!!!AGN:
!!!SMS-siglum: PL-Wn
!!!SMS-shelfmark: SD XVI.O.282
!!!SMS-shelfwork: G
!!!SMS-variant:
!!!SMS-altvar:
!!!NIFC-rismid: 990004245
!!!URL-scan: https://polona.pl/item/psalm-dawidow-lxxix-devs-venerunt-gentes-in-haereditatem-tuam-pollueru-n-t-templum,MTE3MTY4MA/3/#info:metadata
!!!ONB-nifc: UWAGA: proszę zapisywać tylko teksty występujące bezpośrednio pod nutami
**kern	**text	**kern	**text	**kern	**text	**kern	**text
*part4	*part4	*part3	*part3	*part2	*part2	*part1	*part1
*staff4	*staff4	*staff3	*staff3	*staff2	*staff2	*staff1	*staff1
*Iempty	*	*Itenor	*	*Iempty	*	*Isoprn	*
*I"BAS	*	*I"TENOR.	*	*I"ALT.	*	*I"CANTVS.	*
*I'B	*	*I'T	*	*I'A	*	*I'S	*
*clefF3	*	*clefC4	*	*clefC3	*	*clefC1	*
*k[b-]	*	*k[b-]	*	*k[b-]	*	*k[b-]	*
*d:	*	*d:	*	*d:	*	*d:	*
*M2/1	*	*M2/1	*	*M2/1	*	*M2/1	*
*met(C|)	*	*met(C|)	*	*met(C|)	*	*	*
=1-	=1-	=1-	=1-	=1-	=1-	=1-	=1-
!	!	!	!	!	!	!LO:TX:a:B:t=Prestissimo	!
*	*	*	*	*	*	*met(C|)	*
1D	Pá-	1A	Pa-	1d	Pá-	1a	Pá-
1D	-nie	1A	-nie	1d	-nie	1a	nie
=2-	=2-	=2-	=2-	=2-	=2-	=2-	=2-
1A	Bo-	1F	Bo-	1c	Bo-	1a	Bo-
2G\	-że	2B-/	-że	2d\	-że	2b-\	-że
2F\	wſſech-	1A\	wſſech-	2f\	wſſech-	2cc\	wſſech-
=3-	=3-	=3-	=3-	=3-	=3-	=3-	=3-
1B-	-mo-	.	.	1d	-mo-	1dd	-mo-
.	.	2G/	-mo-	.	.	.	.
2A\	-cny.	2A/	-gą-	2a\	-cny	2cc\	-gą-
2A\	etc.	2c\	-ci.	2e\	toć.	2cc\	-ci.
=4-	=4-	=4-	=4-	=4-	=4-	=4-	=4-
!	!	!LO:SIC:v:t=custos A	!	!	!	!	!
1G	.	1d	etc.	1g	etc.	1b-	etc.
*	*	*clefC3	*	*	*	*	*
!	!	!LO:LB:g=original	!	!	!	!	!
2F/	.	2A/	.	2c/	.	2cc\	.
!	!	!	!	!LO:SIC:v:t=custos d	!	!	!
2F/	.	2c\	.	2f\	.	1a\	.
=5-	=5-	=5-	=5-	=5-	=5-	=5-	=5-
!LO:SIC:v:t=custos D	!	!	!	!LO:LB:g=original	!	!	!
1G	.	1B-	.	1d	.	.	.
!	!	!	!	!	!	!LO:SIC:v:t=custos a	!
.	.	.	.	.	.	2g/	.
*clefF4	*	*	*	*	*	*	*
!LO:LB:g=original	!	!	!	!	!	!LO:LB:g=original	!
1D	.	1A	.	1d	.	1a	.
=6-	=6-	=6-	=6-	=6-	=6-	=6-	=6-
1D	.	1d	.	1f	.	1a	.
2D/	.	2d\	.	2f\	.	2a\	.
2D/	.	2d\	.	2f\	.	2a\	.
=7-	=7-	=7-	=7-	=7-	=7-	=7-	=7-
1A	.	1c	.	1e	.	1cc	.
4D/	.	1f	.	1a	.	1dd	.
4E/	.	.	.	.	.	.	.
4F\	.	.	.	.	.	.	.
4G\	.	.	.	.	.	.	.
=8-	=8-	=8-	=8-	=8-	=8-	=8-	=8-
2A\	.	2e\	.	2a\	.	2cc\	.
2A\	.	2c\	.	2e\	.	2cc\	.
!	!	!LO:SIC:v:t=custos c	!	!	!	!	!
2G\	.	1d	.	2g\	.	2b-\	.
!LO:SIC:v:t=custos F	!	!	!	!LO:SIC:v:t=custos f	!	!	!
2D/	.	.	.	2f\	.	2a\	.
*	*	*clefC4	*	*	*	*	*
=9-	=9-	=9-	=9-	=9-	=9-	=9-	=9-
!LO:LB:g=original	!	!LO:LB:g=original	!	!LO:LB:g=original	!	!	!
1.F	.	2.c\	.	1.f	.	2f/	.
!	!	!	!	!	!	!LO:SIC:v:t=custos g	!
.	.	.	.	.	.	1a	.
.	.	4B-\	.	.	.	.	.
.	.	2A/	.	.	.	.	.
!	!	!	!	!	!	!LO:LB:g=original	!
2G\	.	2B-/	.	1f\	.	1g\	.
=10-	=10-	=10-	=10-	=10-	=10-	=10-	=10-
1D	.	1A	.	.	.	.	.
.	.	.	.	2d\	.	2f/	.
1GG	.	1G	.	1d	.	1g	.
=11-	=11-	=11-	=11-	=11-	=11-	=11-	=11-
!LO:TX:t=P:problem:niepotrzebna nuta w partii altu	!	!LO:TX:t=P:problem:niepotrzebna nuta w partii altu	!	!LO:TX:t=P:problem:zbędna nuta	!	!LO:TX:t=P:problem:niepotrzebna nuta w partii altu	!
1ryy	.	1ryy	.	1d	.	1ryy	.
2.D/	.	1A	.	1d	.	1f	.
4E/	.	.	.	.	.	.	.
=12-	=12-	=12-	=12-	=12-	=12-	=12-	=12-
2F\	.	2A/	.	2c/	.	2a\	.
2C/	.	2c\	.	2e\	.	2g/	.
1G	.	1B-	.	1d	.	1g	.
=13-	=13-	=13-	=13-	=13-	=13-	=13-	=13-
2D/	.	2A/	.	2d\	.	2f/	.
!	!	!LO:SIC:v:t=custos d	!	!	!	!	!
2D/	.	2A/	.	2d\	.	2f/	.
*	*	*clefC3	*	*	*	*	*
!	!	!LO:LB:g=original	!	!	!	!	!
1D	.	1d	.	1f	.	2.f/	.
.	.	.	.	.	.	4g/	.
=14-	=14-	=14-	=14-	=14-	=14-	=14-	=14-
2A\	.	2c\	.	2e\	.	2a/	.
!LO:SIC:v:t=custos G	!	!	!	!LO:SIC:v:t=custos g	!	!LO:SIC:v:t=custos b-	!
2A\	.	2c\	.	2e\	.	2a/	.
*clefF3	*	*	*	*clefC2	*	*	*
!LO:LB:g=original	!	!	!	!LO:LB:g=original	!	!LO:LB:g=original	!
2G\	.	2d\	.	2g\	.	2b-\	.
!	!	!	!	!	!	!	!
2E/	.	2e\	.	2g\	.	2cc\	.
=15-	=15-	=15-	=15-	=15-	=15-	=15-	=15-
4D/	.	1f	.	1a	.	1dd	.
4E/	.	.	.	.	.	.	.
4F\	.	.	.	.	.	.	.
4G\	.	.	.	.	.	.	.
1A	.	1e	.	1a	.	1cc	.
=16-	=16-	=16-	=16-	=16-	=16-	=16-	=16-
1A	.	1e	.	1a	.	1cc	.
2B-\	.	2d/	.	2f\	.	2b-\	.
2F/	.	1f\	.	2a\	.	2a\	.
=17-	=17-	=17-	=17-	=17-	=17-	=17-	=17-
2G/	.	.	.	2d/	.	2b-\	.
2A\	.	2e\	.	2c/	.	2cc\	.
!	!	!LO:SIC:v:t=custos c	!	!	!	!	!
2B-\	.	2d\	.	2d/	.	2f/	.
*	*	*clefC4	*	*	*	*	*
!	!	!LO:LB:g=original	!	!	!	!	!
2A\	.	2c\	.	2f/	.	2a/	.
=18-	=18-	=18-	=18-	=18-	=18-	=18-	=18-
!LO:SIC:v:t=custos C	!	!	!	!LO:SIC:v:t=custos e	!	!LO:SIC:v:t=custos g	!
1G	.	1d	.	1g	.	1b-	.
!LO:LB:g=original	!	!	!	!LO:LB:g=original	!	!LO:LB:g=original	!
2C/	.	1c	.	2e/	.	2g/	.
1F\	.	.	.	1f\	.	1a\	.
=19-	=19-	=19-	=19-	=19-	=19-	=19-	=19-
.	.	2A/	.	.	.	.	.
2D/	.	1d	.	2f/	.	4f/	.
.	.	.	.	.	.	4g/	.
1A	.	.	.	2e/	.	4a/	.
.	.	.	.	.	.	4b-\	.
.	.	2c\	.	1a\	.	2cc\	.
=20-	=20-	=20-	=20-	=20-	=20-	=20-	=20-
1B-	.	1d	.	.	.	1dd	.
.	.	.	.	2g\	.	.	.
1A	.	1e	.	1a	.	1cc	.
=21-	=21-	=21-	=21-	=21-	=21-	=21-	=21-
1F	.	1A	.	1c	.	1a	.
2F/	.	2A/	.	2c/	.	2a/	.
2F/	.	2A/	.	2c/	.	2cc\	.
=22-	=22-	=22-	=22-	=22-	=22-	=22-	=22-
!	!	!	!	!	!	!LO:SIC:v:t=custos a	!
2G/	.	2B-/	.	2g\	.	2b-\	.
!	!	!LO:SIC:v:t=custos d	!	!	!	!LO:LB:g=original	!
2A\	.	2c\	.	2.f\	.	1a	.
*	*	*clefC3	*	*	*	*	*
!	!	!LO:LB:g=original	!	!	!	!	!
1B-	.	1d	.	.	.	.	.
.	.	.	.	4e/	.	.	.
!	!	!	!	!LO:SIC:v:t=custos e	!	!	!
.	.	.	.	2d/	.	2g/	.
=23-	=23-	=23-	=23-	=23-	=23-	=23-	=23-
!	!	!	!	!LO:LB:g=original	!	!	!
!LO:SIC:v:t=custos D	!	!	!	!LO:SIC:v:s=1f	!	!	!
1A	.	1c	.	1e	.	1a	.
*clefF4	*	*	*	*	*	*	*
!LO:LB:g=original	!	!	!	!	!	!	!
4D/	.	1f	.	1a	.	1dd	.
4E/	.	.	.	.	.	.	.
4F\	.	.	.	.	.	.	.
4G\	.	.	.	.	.	.	.
=24-	=24-	=24-	=24-	=24-	=24-	=24-	=24-
2A\	.	2e\	.	2a\	.	2cc\	.
2D/	.	1d	.	2f\	.	1b-	.
2G\	.	.	.	2g\	.	.	.
2C/	.	2c\	.	2e/	.	1a\	.
=25-	=25-	=25-	=25-	=25-	=25-	=25-	=25-
2D/	.	1B-	.	2f/	.	.	.
2E/	.	.	.	4e/	.	2g/	.
.	.	.	.	4d/	.	.	.
2.F\	.	[y0Al	.	1c	.	1a	.
4E\	.	.	.	.	.	.	.
=26-	=26-	=26-	=26-	=26-	=26-	=26-	=26-
1D	.	.	.	1f	.	1.dd	.
!	!	!	!	!LO:SIC:v:s=0.el	!	!	!
0.AAl/	.	0.A]yy	.	0.fl	.	.	.
!	!	!	!	!	!	!LO:SIC:v:s=4cc#\	!
.	.	.	.	.	.	4cc\	.
!	!	!	!	!	!	!LO:SIC:v:s=4bn\	!
.	.	.	.	.	.	4b-\	.
=27-	=27-	=27-	=27-	=27-	=27-	=27-	=27-
!	!	!	!	!	!	!LO:TX:t=P:problem:♯ below	!
.	.	.	.	.	.	0cc#X	.
!	!	!	!	!	!	!LO:TX:b:t=CS	!
!LO:TX:b:t=A iij	!	!LO:TX:b:t=C.S	!	!LO:TX:b:t=C.S	!	!LO:TX:b:t=A ij	!
==	==	==	==	==	==	==	==
*-	*-	*-	*-	*-	*-	*-	*-
!!!system-decoration: [(s1,s2,s3,s4)]
!!!ENC: Marta Opryszak
!!!END: 2022-05-17
!!!AIN: 2 empty 1 soprn 1 tenor
!!!ENC: Krzysztof Stępień
!!!END: 2022-06-02
!!!RDF**kern: l = terminal long
